assets/icons/docs.svg

<svg width="40" height="41" viewBox="0 0 40 41" fill="none" xmlns="http://www.w3.org/2000/svg">
<path d="M37.7213 12.7418L23.4564 4.19084C22.5373 3.63143 21.3785 3.71135 20.5794 4.39063L1.91903 19.4548C1.31966 19.9343 1 20.6535 1 21.4127V25.888C1 26.7671 1.4795 27.6062 2.19874 28.0457L15.9043 36.2771C16.4637 36.6367 17.0631 36.7965 17.7024 36.7965C18.4616 36.7965 19.2608 36.5168 19.9001 36.0373L38.041 21.3728C38.6404 20.8933 39 20.174 39 19.4148V14.8996C38.96 14.0205 38.4805 13.1814 37.7213 12.7418ZM18.9811 11.5831L21.5384 9.46529C21.898 9.18559 22.3775 9.14563 22.7371 9.38538L30.2492 13.9006C30.8885 14.3002 30.9285 15.1793 30.3691 15.6188L27.7718 17.7366C27.4122 18.0163 26.9327 18.0562 26.5731 17.8165L19.1009 13.3013C18.4616 12.9017 18.4217 12.0626 18.9811 11.5831ZM36.9222 19.4148C36.9222 19.5746 36.8423 19.6945 36.7224 19.8144L18.6215 34.439C18.142 34.8386 17.5026 34.8785 16.9832 34.5589L3.2776 26.2876C3.11777 26.2077 3.03785 26.0478 3.03785 25.848V22.4516L16.5037 30.5631C16.9033 30.8028 17.3428 30.9227 17.7823 30.9227C18.3417 30.9227 18.9012 30.7229 19.3407 30.3633L36.9222 16.1782V19.4148Z" fill="#F6F6F6"/>
</svg>

<svg width="40" height="41" fill="none" xmlns="http://www.w3.org/2000/svg"><path d="M37.721 12.742 23.456 4.19c-.919-.56-2.078-.48-2.877.2L1.92 19.455c-.6.48-.919 1.199-.919 1.958v4.475c0 .88.48 1.718 1.199 2.158l13.705 8.231c.56.36 1.16.52 1.798.52.76 0 1.559-.28 2.198-.76l18.141-14.664c.6-.48.959-1.199.959-1.958V14.9c-.04-.88-.52-1.719-1.279-2.158Zm-18.74-1.159 2.557-2.118c.36-.28.84-.32 1.2-.08l7.511 4.516c.64.4.68 1.278.12 1.718l-2.597 2.118c-.36.28-.84.32-1.199.08L19.101 13.3c-.64-.4-.68-1.238-.12-1.718Zm17.941 7.832c0 .16-.08.28-.2.4l-18.1 14.624c-.48.4-1.12.44-1.639.12L3.278 26.288c-.16-.08-.24-.24-.24-.44v-3.396l13.466 8.111c.4.24.839.36 1.278.36.56 0 1.12-.2 1.559-.56l17.581-14.185v3.237Z" fill="#F6F6F6"/></svg>
